X: 91
T: No_20_A_War_Bird.krn
%%abc-version 2.0
%%abcx-abcm2ps-target-version 5.9.1 (29 Sep 2008)
%%abc-creator hum2abc beta
%%abcx-conversion-date 2020/08/10 18:54:57
%%gracespace 0 6 6
%%humdrum-veritas 2005089684
%%humdrum-veritas-data 2258883101
%%linebreak <none>
%%barnumbers 0
L: 1/8
M: 3/4
%%staves {1 2}
V: 1 clef=bass
V: 2 clef=bass
K: G
[V:1] [K:clef=bass][M:3/4]E2EE EE | 
[V:2] [K:clef=bass][M:3/4](3!accent!G,, z G,, (3!accent!G,, z G,, (3!accent!G,, z G,, | 
[V:1] G2>E2D2 | 
[V:2] z6 | 
[V:1] E2>D2B,2 | 
[V:2] z6 | 
[V:1] B,6 | 
[V:2] z6 | 
[V:1] B,>B, B,B,B,2 | 
[V:2] z6 | 
[V:1] B,>B, DB, A,3/A,/ ||  
[V:2] z6 ||  
[V:1] [M:2/4]B,>D B,A, ||  
[V:2] [M:2/4]z4 ||  
[V:1] [M:3/4]G,>A, G,E,E,2 | 
[V:2] [M:3/4]z6 | 
[V:1] E,6 | 
[V:2] z6 | 
[V:1] E,>E, E,E, D,D, | 
[V:2] z6 | 
[V:1] E,>F, E,D, B,,B,, | 
[V:2] z6 | 
[V:1] B,,6 |]  
[V:2] z6 |]  


